!!!COM: Damas, Georges Aleka
!!!CDT: 1902-1982
!!!OTL: National Anthem, Gabon
!!!ENC: Davis, Matthew J.
!!Vocal Line Only
**kern
*clefG2
*k[f#]
*G:
*M2/4
=1-
4r
4d
==2
!Coda Symbol
[2g
-3
8g]
8f#
8.a
16g
=4
[2b
=5
8b]
8r
8.g
16a
=6
[2b
=7
8b]
8a
8.cc
16b
=8
[2dd
=9
8dd]
8r
4dd
=10
8.ee
16dd
8.cc
16b
=11
4cc
8r
16r
16cc
=12
8.dd
16cc
8.b
16a
=13
4b
8.b
16b
=14
8.cc
16b
8.a
16g
=15
4.a
8cc#
=16
8.a
16dd
8.cc#
16ee
=17
4dd
[4dd
=18
8dd]
8r
8.dd
16dd
=19
4cc
8.cc
16b
=20
8.a
16a
8.b
16cc
=21
4dd
4cc
=22
8b
8r
8.dd
16dd
=23
4gg
8.ff#
16ee
=24
8.dd
16b
8.g
16cc
=25
4b
4a
=26
4g
4r
!Fine
==27
4g
4g
=28
4g
8.d
16g
=29
[2b
=30
4b]
4r
=31
4b
4b
=32
4b
8.g
16b
=33
[2dd
=34
3dd]
4r
=35
4dd
4dd
=36
4ee
8.dd
16cc
=37
[2b
=38
4b]
4r
=39
4b
8.g
16b
=40
4dd
4cc
=41
2b
=42
4a
4r
=43
4g
4g
=44
4g
8.d
16g
=45
[2b
=46
4b]
4r
=47
4b
4b
=48
4b
8.g
16b
=49
2dd
=50
4dd
4r
=51
4dd
4dd
=52
4ee
8.dd
16cc
=53
[2b
=54
4b]
4r
=55
4a
8.a
16a
=56
4b
4g
=57
[2dd
=58
!Chorus
!Repeat from the coda (measure 2) to the Fine
4dd]
==50
*-
